flaticon/romance-lifestyle/love-letter-2.svg

<svg xmlns="http://www.w3.org/2000/svg" width="32" height="32" viewBox="0 0 24 24">
    <path d="M 23.597656 3.402344 L 0.402344 3.402344 C 0.160156 3.402344 0 3.5625 0 3.800781 L 0 20.199219 C 0 20.441406 0.160156 20.601562 0.402344 20.601562 L 23.597656 20.601562 C 23.839844 20.601562 24 20.441406 24 20.199219 L 24 3.800781 C 24 3.5625 23.839844 3.402344 23.597656 3.402344 Z M 23.199219 19.800781 L 0.800781 19.800781 L 0.800781 4.203125 L 23.199219 4.203125 Z M 23.199219 19.800781"/>
    <path d="M 17.160156 7.921875 C 16.359375 7.042969 15.441406 6.601562 14.480469 6.601562 C 13.480469 6.601562 12.601562 7.121094 12 8.042969 C 11.441406 7.121094 10.519531 6.601562 9.558594 6.601562 C 8.558594 6.601562 7.679688 7.042969 6.878906 7.921875 C 5.921875 8.960938 5.402344 11.28125 7.242188 13.039062 C 8.039062 13.800781 11.679688 17.601562 11.71875 17.640625 C 11.800781 17.71875 11.878906 17.761719 12 17.761719 C 12.121094 17.761719 12.238281 17.71875 12.320312 17.640625 C 12.359375 17.640625 16 13.800781 16.800781 13.039062 C 18.597656 11.28125 18.078125 8.960938 17.160156 7.921875 Z M 16.199219 12.480469 C 15.519531 13.121094 12.878906 15.878906 12 16.800781 C 11.121094 15.839844 8.480469 13.082031 7.800781 12.441406 C 6.359375 11.082031 6.761719 9.242188 7.480469 8.441406 C 8.121094 7.761719 8.839844 7.402344 9.558594 7.402344 C 10.601562 7.402344 11.320312 8.242188 11.679688 9.042969 C 11.71875 9.160156 11.878906 9.28125 12.039062 9.28125 C 12.199219 9.28125 12.359375 9.203125 12.398438 9.042969 C 12.679688 8.242188 13.398438 7.402344 14.480469 7.402344 C 15.199219 7.402344 15.917969 7.761719 16.519531 8.480469 C 17.238281 9.28125 17.640625 11.082031 16.199219 12.480469 Z M 16.199219 12.480469"/>
    <path d="M23.757812 3.441406C23.597656 3.363281 23.4375 3.402344 23.320312 3.523438L17.320312 9.601562C17.238281 9.679688 17.199219 9.800781 17.199219 9.921875 17.238281 10.480469 17.199219 11.5625 16.238281 12.480469 16.160156 12.5625 16.039062 12.679688 15.917969 12.800781 15.839844 12.878906 15.800781 12.960938 15.800781 13.082031 15.800781 13.199219 15.839844 13.28125 15.917969 13.359375L23.320312 20.480469C23.398438 20.558594 23.476562 20.601562 23.597656 20.601562 23.636719 20.601562 23.71875 20.601562 23.757812 20.558594 23.917969 20.519531 24 20.359375 24 20.199219L24 3.800781C24 3.640625 23.917969 3.480469 23.757812 3.441406zM23.199219 19.238281L16.757812 13.039062C17.640625 12.199219 18.039062 11.160156 17.960938 10.042969L23.199219 4.761719zM8.121094 12.800781C8 12.679688 7.878906 12.5625 7.800781 12.480469 6.800781 11.519531 6.761719 10.480469 6.839844 9.921875 6.839844 9.800781 6.800781 9.679688 6.71875 9.601562L.679688 3.523438C.5625 3.402344.402344 3.363281.242188 3.441406.0820312 3.480469 0 3.640625 0 3.800781L0 20.199219C0 20.359375.0820312 20.519531.242188 20.558594.28125 20.601562.363281 20.601562.402344 20.601562.523438 20.601562.601562 20.558594.679688 20.480469L8.121094 13.359375C8.199219 13.28125 8.242188 13.199219 8.242188 13.082031 8.242188 12.960938 8.199219 12.878906 8.121094 12.800781zM.800781 19.238281L.800781 4.761719 6 10.042969C5.921875 11.160156 6.359375 12.199219 7.199219 13.039062 7.242188 13.039062 7.242188 13.039062 7.242188 13.039062zM.800781 19.238281"/>
    <path d="M 23.957031 3.640625 C 23.917969 3.480469 23.757812 3.402344 23.597656 3.402344 L 0.402344 3.402344 C 0.242188 3.402344 0.0820312 3.480469 0.0429688 3.640625 C -0.0390625 3.800781 0 3.960938 0.121094 4.082031 L 6.160156 10.160156 C 6.242188 10.242188 6.320312 10.28125 6.441406 10.28125 C 6.480469 10.28125 6.519531 10.28125 6.601562 10.242188 C 6.761719 10.199219 6.878906 10.082031 6.878906 9.921875 C 6.960938 9.320312 7.199219 8.800781 7.519531 8.441406 C 8.160156 7.761719 8.878906 7.402344 9.601562 7.402344 C 10.640625 7.402344 11.359375 8.242188 11.679688 9.042969 C 11.71875 9.160156 11.878906 9.28125 12.039062 9.28125 C 12.199219 9.28125 12.359375 9.203125 12.398438 9.042969 C 12.679688 8.242188 13.398438 7.402344 14.480469 7.402344 C 15.199219 7.402344 15.917969 7.761719 16.558594 8.441406 C 16.878906 8.800781 17.078125 9.359375 17.160156 9.921875 C 17.199219 10.082031 17.277344 10.199219 17.4375 10.242188 C 17.558594 10.320312 17.71875 10.28125 17.839844 10.160156 L 23.878906 4.082031 C 24 3.960938 24.039062 3.800781 23.957031 3.640625 Z M 17.800781 9.082031 C 17.679688 8.640625 17.4375 8.242188 17.160156 7.921875 C 16.359375 7.042969 15.441406 6.601562 14.480469 6.601562 C 13.480469 6.601562 12.601562 7.121094 12 8.042969 C 11.441406 7.121094 10.519531 6.601562 9.558594 6.601562 C 8.558594 6.601562 7.679688 7.042969 6.878906 7.921875 C 6.5625 8.242188 6.359375 8.640625 6.199219 9.082031 L 1.363281 4.203125 L 22.636719 4.203125 Z M 17.800781 9.082031"/>
</svg>

<svg xmlns="http://www.w3.org/2000/svg" width="32" height="32" viewBox="0 0 24 24">
    <path d="M23.598 3.402H.402c-.242 0-.402.16-.402.399v16.398c0 .242.16.403.402.403h23.196c.242 0 .402-.16.402-.403V3.801c0-.239-.16-.399-.402-.399zm-.399 16.399H.801V4.203h22.398zm0 0"/>
    <path d="M17.16 7.922c-.8-.879-1.719-1.32-2.68-1.32-1 0-1.878.52-2.48 1.441-.559-.922-1.48-1.441-2.441-1.441-1 0-1.88.441-2.68 1.32-.957 1.039-1.477 3.36.363 5.117.797.762 4.438 4.563 4.477 4.602.082.078.16.12.281.12a.466.466 0 0 0 .32-.12c.04 0 3.68-3.84 4.48-4.602 1.798-1.758 1.278-4.078.36-5.117zm-.96 4.558c-.68.641-3.321 3.399-4.2 4.32-.879-.96-3.52-3.718-4.2-4.359-1.44-1.359-1.038-3.199-.32-4 .641-.68 1.36-1.039 2.079-1.039 1.043 0 1.761.84 2.12 1.641.04.117.2.238.36.238.16 0 .32-.078.36-.238.28-.8 1-1.64 2.081-1.64.72 0 1.438.359 2.04 1.077.718.801 1.12 2.602-.32 4zm0 0"/>
    <path d="M23.758 3.441a.362.362 0 0 0-.438.082l-6 6.079a.442.442 0 0 0-.12.32c.038.558 0 1.64-.962 2.558-.078.082-.199.2-.32.32a.366.366 0 0 0-.117.282c0 .117.039.2.117.277l7.402 7.121a.36.36 0 0 0 .278.122c.039 0 .12 0 .16-.043.16-.04.242-.2.242-.36V3.801c0-.16-.082-.32-.242-.36zm-.559 15.797l-6.441-6.199c.883-.84 1.281-1.879 1.203-2.996l5.238-5.281zm0 0M8.121 12.8c-.121-.12-.242-.238-.32-.32-1-.96-1.04-2-.961-2.558a.442.442 0 0 0-.121-.32L.679 3.523a.362.362 0 0 0-.437-.082c-.16.04-.242.2-.242.36v16.398c0 .16.082.32.242.36.04.043.121.043.16.043a.36.36 0 0 0 .278-.122l7.441-7.12a.366.366 0 0 0 .121-.278.369.369 0 0 0-.12-.281zm-7.32 6.438V4.762L6 10.043c-.078 1.117.36 2.156 1.2 2.996h.042zm0 0"/>
    <path d="M23.957 3.64c-.039-.16-.2-.238-.36-.238H.403c-.16 0-.32.078-.359.239-.082.16-.043.32.078.441l6.04 6.078c.081.082.16.121.28.121.04 0 .079 0 .16-.039.16-.043.278-.16.278-.32.082-.602.32-1.121.64-1.48.641-.68 1.36-1.04 2.083-1.04 1.039 0 1.757.84 2.078 1.641.039.117.199.238.36.238.16 0 .32-.078.358-.238.282-.8 1-1.64 2.082-1.64.72 0 1.438.359 2.079 1.038.32.36.52.918.601 1.48.04.161.117.278.277.321.122.078.282.04.403-.082l6.039-6.078c.121-.121.16-.281.078-.441zm-6.156 5.442a3.033 3.033 0 0 0-.64-1.16c-.802-.879-1.72-1.32-2.68-1.32-1 0-1.88.52-2.481 1.441-.559-.922-1.48-1.441-2.441-1.441-1 0-1.88.441-2.68 1.32-.316.32-.52.719-.68 1.16L1.363 4.203h21.274zm0 0"/>
</svg>
